dist/intermediate-svg/sign.svg

<?xml version="1.0" encoding="utf-8"?><svg width="8" height="9" fill="none" xmlns="http://www.w3.org/2000/svg" viewBox="0 0 8 9"><path d="M4 0.500122C1.8 0.500122 0 2.30012 0 4.50012C0 6.70012 1.8 8.50012 4 8.50012C6.2 8.50012 8 6.70012 8 4.50012C8 2.30012 6.2 0.500122 4 0.500122ZM4 7.50012C2.33333 7.50012 1 6.16679 1 4.50012C1 2.83346 2.33333 1.50012 4 1.50012C5.66667 1.50012 7 2.83346 7 4.50012C7 6.16679 5.66667 7.50012 4 7.50012ZM4.66667 5.83346V6.50012C4.66667 6.70012 4.53333 6.83346 4.33333 6.83346H3.66667C3.46667 6.83346 3.33333 6.70012 3.33333 6.50012V5.83346C3.33333 5.63346 3.46667 5.50012 3.66667 5.50012H4.33333C4.53333 5.50012 4.66667 5.63346 4.66667 5.83346ZM5.6 3.50012V3.53345C5.6 4.00011 5.3 4.23346 4.93333 4.4668C4.6 4.70013 4.5 4.90011 4.43333 5.03345C4.4 5.10011 4.33333 5.13346 4.26666 5.13346H3.56667C3.46667 5.13346 3.4 5.03345 3.4 4.93345C3.43334 4.76678 3.46666 4.56679 3.63333 4.40013C3.9 4.10013 4.3 3.83345 4.4 3.76678C4.5 3.70012 4.56667 3.60012 4.56667 3.50012C4.56667 3.30012 4.43334 3.16679 4.23334 3.16679H3.73334C3.53334 3.16679 3.4 3.30012 3.4 3.50012C3.4 3.70012 3.26667 3.83346 3.06667 3.83346H2.73334C2.53334 3.83346 2.4 3.70012 2.4 3.50012C2.4 2.76679 3 2.16679 3.73334 2.16679H4.23334C5 2.16679 5.6 2.56679 5.6 3.50012Z" fill="#BABABA"/></svg>

<?xml version="1.0" encoding="utf-8"?><svg width="8" height="9" fill="none" xmlns="http://www.w3.org/2000/svg" viewBox="0 0 8 9"><path d="M4 .5c-2.2 0-4 1.8-4 4s1.8 4 4 4 4-1.8 4-4-1.8-4-4-4zm0 7c-1.667 0-3-1.333-3-3s1.333-3 3-3 3 1.333 3 3-1.333 3-3 3zm.667-1.667V6.5c0 .2-.134.333-.334.333h-.666c-.2 0-.334-.133-.334-.333v-.667c0-.2.134-.333.334-.333h.666c.2 0 .334.133.334.333zM5.6 3.5v.033c0 .467-.3.7-.667.934-.333.233-.433.433-.5.566-.033.067-.1.1-.166.1h-.7c-.1 0-.167-.1-.167-.2.033-.166.067-.366.233-.533.267-.3.667-.567.767-.633.1-.067.167-.167.167-.267 0-.2-.134-.333-.334-.333h-.5c-.2 0-.333.133-.333.333s-.133.333-.333.333h-.334c-.2 0-.333-.133-.333-.333 0-.733.6-1.333 1.333-1.333h.5C5 2.167 5.6 2.567 5.6 3.5z" fill="#BABABA"/></svg>
